X:1
T:When Jesus Shall Appear
T:When Jesus Shall Appear
T:Bentley DeForest Ackley
T:Alfred Henry Ackley, 1916
T:Public Domain Courtesy of the Cyber Hymnal™
T:Public Domain Courtesy of the Cyber Hymnal™
C:Bentley DeForest Ackley
Z:Public Domain
Z:Courtesy of the Cyber Hymnal™
%%score ( 1 2 ) ( 3 4 )
L:1/8
Q:1/4=110
M:4/4
K:C
V:1 treble 
V:2 treble 
V:3 bass 
V:4 bass 
V:1
 ([CE][DF]) | [EG]2 [Ge]2 [Fd]2 [Ec]2 | [CE]2 [DF]2 [EG]2 [EA]2 | [EB]2 [Ed]2 [Ec]2 [EA]2 | %4
w: 1.~The *|day of Christ is|draw- ing near, We|have not watched in|
w: 2.~The *|na- tions shall lay|down their arms, To-|ge- ther dwell in|
w: 3.~Turn *|ye and seek His|cleans- ing grace, Your|Sav- ior He would|
 [FB]6 [FB]2 | [Fd]2 [Fc]2 [FB]2 [FA]2 | [Fd]2 [Fc]2 [FB]2 [FA]2 | [EG]3 [FA] [EG]2 [DF]2 | %8
w: vain, For|soon our sov- ereign|shall des- cend In|ma- jes- ty to|
w: peace, And|those who mourn shall|com- fort find, And|alll op- pressed re-|
w: be; His|blood was shed for|all man- kind, He|of- fers par- don|
 [CE]6 ([CE][DF]) | [EG]2 [Ge]2 [Fd]2 [Ec]2 | [CE]2 [DF]2 [EG]2 [EA]2 | [EB]2 [Ed]2 [Ec]2 [EA]2 | %12
w: reign. A *|thou- sand years of|right- eous- ness Shall|bless the sons of|
w: lease. The *|Word of God has|been ful- filled, We|wait the glor- ious|
w: free; Lo, *|from the sky He|shall des- cend As|when He went a-|
 [DB]6 [Dd]2 | [Dd]2 [Dd]2 [Dd]2 [Dd]2 | [Dd]2 [Dd]2 [Gd]2 [Ge]2 | [Gd]3 [^Fc] [FB]2 [DA]2 | %16
w: men; The|sound of strife and|tu- mult cease, When|Je- sus comes a-|
w: reign Of|Hea- ven here up-|on the earth, When|Je- sus comes a-|
w: way; Let|all a cease- less|vi- gil keep, Un-|til that bless- èd|
 [DG]6 x4 ||"^Refrain" [FG]2 | [Ee]6 [Ec]2 | [FA]6 [Ad]2 | [Gc]4 B4 | [Ec]6 E2 | %22
w: gain.||||||
w: gain.|Re-|joice, re-|joice, ye|sol- diers|true; His|
w: day.||||||
 [CA]2 [CA]2 ([CA][DB]) [Ec]2 | [EB]6 [E^G]2 | [^GB]2 [GB]2 ([Bd][Ac]) [GB]2 | c6 [=Bc]2 | %26
w: ||||
w: com- ing draw- * eth|near, His|com- ing draw- * eth|near; God|
w: ||||
 [Ac]3 [Ac] [Gc]2 [Gc]2 | [^Fc]2 [Fd]2 !fermata![Gd]2 [=FG]2 | [Ec]2 [Ec]2 [Fc]2 [Ec]2 | %29
w: |||
w: haste the long ex-|pect- ed day, When|Je- sus shall ap-|
w: |||
 [Fc]6 [FA]2 | [EG]2 [EG]2 G2 [FG]2 | G6 [^DA]2 | [EG]2 [Ge]2 [Fdg]3 [Ec] | [Ec]6 |] %34
w: |||||
w: pear, When|Je- sus shall ap-|pear, When|Je- sus shall ap-|pear.|
w: |||||
V:2
 x2 | x8 | x8 | x8 | x8 | x8 | x8 | x8 | x8 | x8 | x8 | x8 | x8 | x8 | x8 | x8 | x10 || x2 | x8 | %19
 x8 | x4 (G2 F2) | x6 (ED) | x8 | x8 | x8 | (A4 _B2) x2 | x8 | x8 | x8 | x8 | x4 (DE) x2 | %31
 (E2 F2 E2) x2 | x8 | x6 |] %34
V:3
 [C,G,]2 | [C,C]2 [C,C]2 [C,G,]2 [C,G,]2 | [C,G,]2 [C,G,]2 [C,C]2 [C,C]2 | %3
w: ~|~ ~ ~ ~|~ ~ ~ ~|
 [C,G,]2 [C,G,]2 [C,G,]2 [C,C]2 | [G,D]6 [G,D]2 | [G,B,]2 [G,C]2 [G,D]2 [G,D]2 | %6
w: ~ ~ ~ ~|~ ~|~ ~ ~ ~|
 [G,B,]2 [G,C]2 [G,D]2 [G,B,]2 | [G,C]3 [G,C] [G,B,]2 G,2 | [C,G,]6 [C,G,]2 | %9
w: ~ ~ ~ ~|~ ~ ~ ~|~ ~|
 [C,C]2 [C,C]2 [C,G,]2 [C,G,]2 | [C,G,]2 [C,G,]2 [C,C]2 [C,C]2 | [C,G,]2 [C,G,]2 [C,G,]2 [C,G,]2 | %12
w: ~ ~ ~ ~|~ ~ ~ ~|~ ~ ~ ~|
 [G,,G,]6 [B,,G,]2 | ([D,^F,][E,G,]) ([F,A,][G,B,]) [A,C]2 [D,F,]2 | %14
w: ~ ~|~ * ~ * ~ ~|
 ([E,G,][^F,A,]) ([G,B,][A,C]) [B,D]2 [C,C]2 | [D,B,]3 [D,A,] [D,D]2 [D,C]2 | %16
w: ~ * ~ * ~ ~|~ ~ ~ ~|
 [G,B,]6 ([G,,F,]2 [E,,E,]2) || [D,,D,]2 | z2 [C,C]2 [C,C]2 z2 | z2 [F,D]2 [F,D]2 [F,F]2 | %20
w: ~ ~ *||re- joice,|re- joice, re-|
 [G,E]2 [G,E]2 [G,D]2 [G,D]2 | [C,C]6 z2 | z2 [A,,E,]2 [A,,E,]2 [A,,A,]2 | %23
w: joice ye sol- diers|true,|His com- ing|
 [E,^G,]2 [E,G,]2 [E,G,]2 z2 | z2 [E,E]2 [E,E]2 [E,E]2 | [A,E]2 [A,E]2 [G,E]2 [G,E]2 | %26
w: draw- eth near,|His com- ing|draw- eth near, ~|
 [F,F]3 [F,F] [E,C]2 [E,C]2 | [D,A,]2 [D,A,]2 !fermata![G,B,]2 [G,B,]2 | %28
w: ~ ~ ~ ~|~ ~ ~ ~|
 [C,C]2 [_B,C]2 [A,C]2 [G,B,]2 | [F,A,]6 [F,C]2 | [G,C]2 [G,C]2 (B,C) [G,,G,D]2 | %31
w: ~ ~ ~ ~|~ ~|~ ~ Je- * sus|
 [C,C]2 [D,B,]2 [E,C]2 [^F,C]2 | [G,C]2 [G,C]2 [G,B,]3 [C,G,C] | [C,G,C]6 |] %34
w: shall ap- pear, *|||
V:4
 x2 | x8 | x8 | x8 | x8 | x8 | x8 | x4 (G,,A,,) (B,,G,,) | x8 | x8 | x8 | x8 | x8 | x8 | x8 | x8 | %16
 G,,2 x8 || x2 | x8 | x8 | x8 | x8 | x8 | x8 | x8 | x8 | x8 | x8 | x8 | x8 | x4 [G,,G,]2 x2 | x8 | %32
 x8 | x6 |] %34

